assets/icons/qvision/filter_center_focus.svg

<svg xmlns="http://www.w3.org/2000/svg" height="24" viewBox="0 0 24 24" width="24"><path d="M0 0h24v24H0z" fill="none"/><path d="M5 15H3v4c0 1.1.9 2 2 2h4v-2H5v-4zM5 5h4V3H5c-1.1 0-2 .9-2 2v4h2V5zm14-2h-4v2h4v4h2V5c0-1.1-.9-2-2-2zm0 16h-4v2h4c1.1 0 2-.9 2-2v-4h-2v4zM12 9c-1.66 0-3 1.34-3 3s1.34 3 3 3 3-1.34 3-3-1.34-3-3-3z"/></svg>

<svg width="24" height="24" viewBox="0 0 24 24" fill="none" xmlns="http://www.w3.org/2000/svg">
<g clip-path="url(#clip0_147_3437)">
<path d="M5 15H3V19C3 20.1 3.9 21 5 21H9V19H5V15ZM5 5H9V3H5C3.9 3 3 3.9 3 5V9H5V5ZM19 3H15V5H19V9H21V5C21 3.9 20.1 3 19 3ZM19 19H15V21H19C20.1 21 21 20.1 21 19V15H19V19ZM12 9C10.34 9 9 10.34 9 12C9 13.66 10.34 15 12 15C13.66 15 15 13.66 15 12C15 10.34 13.66 9 12 9Z" fill="#323232"/>
</g>
<defs>
<clipPath id="clip0_147_3437">
<rect width="24" height="24" fill="white"/>
</clipPath>
</defs>
</svg>
